Catalina-dark/actions/22/view-object-histogram-logarithmic.svg

<svg viewBox="0 0 22 22" xmlns="http://www.w3.org/2000/svg">
<defs>
<style id="current-color-scheme" type="text/css">.ColorScheme-Text {
        color:#f2f2f2;
      }</style>
</defs>
<path class="ColorScheme-Text" d="m4 3v14h-1v1h1v1h1v-1h14v-10h-1v1h-1v-1h-1v-1h-1v1h-1v-2h-1v3h-1v-2h-1v-2h-1v-2h-1v1h-1v1h-1v1h-1v1h-1v-4h-1z" fill="currentColor"/>
</svg>

<svg xmlns="http://www.w3.org/2000/svg" viewBox="0 0 22 22">
  <defs id="defs3051">
    <style type="text/css" id="current-color-scheme">
      .ColorScheme-Text {
        color:#f2f2f2;
      }
      </style>
  </defs>
 <path 
    style="fill:currentColor;fill-opacity:1;stroke:none" 
    d="M 4 3 L 4 17 L 3 17 L 3 18 L 4 18 L 4 19 L 5 19 L 5 18 L 6 18 L 19 18 L 19 17 L 19 8 L 18 8 L 18 9 L 17 9 L 17 8 L 16 8 L 16 7 L 15 7 L 15 8 L 14 8 L 14 6 L 13 6 L 13 9 L 12 9 L 12 7 L 11 7 L 11 5 L 10 5 L 10 3 L 9 3 L 9 4 L 8 4 L 8 5 L 7 5 L 7 6 L 6 6 L 6 7 L 5 7 L 5 3 L 4 3 z "
	class="ColorScheme-Text"
    />  
</svg>
